svgs/duotone/panel-ews.svg

<svg xmlns="http://www.w3.org/2000/svg" viewBox="0 0 512 512"><!--! Font Awesome Pro 6.1.1 by @fontawesome - https://fontawesome.com License - https://fontawesome.com/license (Commercial License) Copyright 2022 Fonticons, Inc. --><defs><style>.fa-secondary{opacity:.4}</style></defs><path class="fa-primary" d="M192 256H160C142.3 256 128 270.3 128 288v32c0 17.66 14.34 32 32 32v32c0 17.66-14.34 32-32 32s-32-14.34-32-32v-32c0-35.36-28.64-64-64-64H0v32h32c17.66 0 32 14.34 32 32v32c0 35.36 28.64 64 64 64s64-28.64 64-64v-32c17.66 0 32-14.34 32-32V288C224 270.3 209.7 256 192 256zM384 256h-32c-17.66 0-32 14.34-32 32v128c0 17.66 14.34 32 32 32h32c17.66 0 32-14.34 32-32V288C416 270.3 401.7 256 384 256z"/><path class="fa-secondary" d="M448 0H64C28.64 0 0 28.64 0 64v224h32c35.36 0 64 28.64 64 64v32c0 17.66 14.34 32 32 32s32-14.34 32-32v-32c-17.66 0-32-14.34-32-32V288c0-17.66 14.34-32 32-32h32c17.66 0 32 14.34 32 32v32c0 17.66-14.34 32-32 32v32c0 35.36-28.64 64-64 64s-64-28.64-64-64v-32c0-17.66-14.34-32-32-32H0v128c0 35.36 28.64 64 64 64h384c35.36 0 64-28.64 64-64V64C512 28.64 483.4 0 448 0zM208 160h-96C103.2 160 96 152.8 96 144S103.2 128 112 128h96C216.8 128 224 135.2 224 144S216.8 160 208 160zM208 96h-96C103.2 96 96 88.83 96 80S103.2 64 112 64h96C216.8 64 224 71.17 224 80S216.8 96 208 96zM416 416c0 17.66-14.34 32-32 32h-32c-17.66 0-32-14.34-32-32V288c0-17.66 14.34-32 32-32h32c17.66 0 32 14.34 32 32V416zM400 160h-96C295.2 160 288 152.8 288 144S295.2 128 304 128h96C408.8 128 416 135.2 416 144S408.8 160 400 160zM400 96h-96C295.2 96 288 88.83 288 80S295.2 64 304 64h96C408.8 64 416 71.17 416 80S408.8 96 400 96z"/></svg>

<svg xmlns="http://www.w3.org/2000/svg" viewBox="0 0 512 512"><!--! Font Awesome Pro 6.5.1 by @fontawesome - https://fontawesome.com License - https://fontawesome.com/license (Commercial License) Copyright 2023 Fonticons, Inc. --><defs><style>.fa-secondary{opacity:.4}</style></defs><path class="fa-secondary" d="M64 0C28.7 0 0 28.7 0 64V288H16c44.2 0 80 35.8 80 80v16c0 17.7 14.3 32 32 32s32-14.3 32-32V352c-17.7 0-32-14.3-32-32V288c0-17.7 14.3-32 32-32h32c17.7 0 32 14.3 32 32v32c0 17.7-14.3 32-32 32v32c0 35.3-28.7 64-64 64s-64-28.7-64-64V368c0-26.5-21.5-48-48-48H0V448c0 35.3 28.7 64 64 64H448c35.3 0 64-28.7 64-64V64c0-35.3-28.7-64-64-64H64zm48 64h96c8.8 0 16 7.2 16 16s-7.2 16-16 16H112c-8.8 0-16-7.2-16-16s7.2-16 16-16zm192 0h96c8.8 0 16 7.2 16 16s-7.2 16-16 16H304c-8.8 0-16-7.2-16-16s7.2-16 16-16zM112 128h96c8.8 0 16 7.2 16 16s-7.2 16-16 16H112c-8.8 0-16-7.2-16-16s7.2-16 16-16zm192 0h96c8.8 0 16 7.2 16 16s-7.2 16-16 16H304c-8.8 0-16-7.2-16-16s7.2-16 16-16zm16 128h64c17.7 0 32 14.3 32 32V416c0 17.7-14.3 32-32 32H320c-17.7 0-32-14.3-32-32V288c0-17.7 14.3-32 32-32z"/><path class="fa-primary" d="M128 288c0-17.7 14.3-32 32-32h32c17.7 0 32 14.3 32 32v32c0 17.7-14.3 32-32 32v32c0 35.3-28.7 64-64 64s-64-28.7-64-64V368c0-26.5-21.5-48-48-48H0V288H16c44.2 0 80 35.8 80 80v16c0 17.7 14.3 32 32 32s32-14.3 32-32V352c-17.7 0-32-14.3-32-32V288zm192-32h64c17.7 0 32 14.3 32 32V416c0 17.7-14.3 32-32 32H320c-17.7 0-32-14.3-32-32V288c0-17.7 14.3-32 32-32z"/></svg>
